1-js/09-classes/02-class-inheritance/rabbit-animal-independent-rabbit.svg

<?xml version="1.0" encoding="UTF-8"?>
<svg width="463px" height="202px" viewBox="0 0 463 202" version="1.1" xmlns="http://www.w3.org/2000/svg" xmlns:xlink="http://www.w3.org/1999/xlink">
    <!-- Generator: sketchtool 61.2 (101010) - https://sketch.com -->
    <title>rabbit-animal-independent-rabbit.svg</title>
    <desc>Created with sketchtool.</desc>
    <g id="inheritance" stroke="none" stroke-width="1" fill="none" fill-rule="evenodd">
        <g id="rabbit-animal-independent-rabbit.svg">
            <path d="M243,23 L243,71 L421,71 L421,23 L243,23 Z" id="Rectangle-1" stroke="#E8C48E" stroke-width="2" fill="#FFF9EB"></path>
            <text id="constructor:-Rabbit" font-family="PTMono-Regular, PT Mono" font-size="14" font-weight="normal" fill="#8A704D">
                <tspan x="253" y="29"></tspan>
                <tspan x="253" y="44">constructor: Rabbit</tspan>
                <tspan x="253" y="59">hide: function</tspan>
            </text>
            <text id="Rabbit.prototype" font-family="PTMono-Regular, PT Mono" font-size="14" font-weight="normal" fill="#8A704D">
                <tspan x="242" y="15">Rabbit.prototype</tspan>
            </text>
            <rect id="Rectangle-1-Copy-2" stroke="#E8C48E" stroke-width="2" fill="#FFF9EB" x="8" y="23" width="108" height="28"></rect>
            <text id="Rabbit" font-family="PTMono-Regular, PT Mono" font-size="14" font-weight="normal" fill="#8A704D">
                <tspan x="7" y="15">Rabbit</tspan>
            </text>
            <path d="M242,151 L242,179 L420,179 L420,151 L242,151 Z" id="Rectangle-1-Copy-3" stroke="#E8C48E" stroke-width="2" fill="#FFF9EB"></path>
            <text id="new-Rabbit" font-family="PTMono-Regular, PT Mono" font-size="14" font-weight="normal" fill="#8A704D">
                <tspan x="244" y="143">new Rabbit</tspan>
            </text>
            <path id="Line" d="M331.5,81.5 L338.5,95.5 L332.5,95.5 L332.5,123.5 L330.5,123.5 L330.5,95.5 L324.5,95.5 L331.5,81.5 Z" fill="#EE6B47" fill-rule="nonzero"></path>
            <path id="Line-Copy" d="M212,30 L226,37 L212,44 L212,38 L132,38 L132,36 L212,36 L212,30 Z" fill="#EE6B47" fill-rule="nonzero"></path>
            <text id="[[Prototype]]" font-family="PTMono-Regular, PT Mono" font-size="14" font-weight="normal" fill="#8A704D">
                <tspan x="341" y="105">[[Prototype]]</tspan>
            </text>
            <text id="prototype" font-family="PTMono-Regular, PT Mono" font-size="14" font-weight="normal" fill="#8A704D">
                <tspan x="139" y="25">prototype</tspan>
            </text>
            <text id="name:-&quot;My-rabbit&quot;" font-family="PTMono-Regular, PT Mono" font-size="14" font-weight="normal" fill="#8A704D">
                <tspan x="254" y="169">name: "My rabbit"</tspan>
            </text>
        </g>
    </g>
</svg>

<svg xmlns="http://www.w3.org/2000/svg" width="463" height="202" viewBox="0 0 463 202"><defs><style>@import url(https://fonts.googleapis.com/css?family=Open+Sans:bold,italic,bolditalic%7CPT+Mono);@font-face{font-family:&apos;PT Mono&apos;;font-weight:700;font-style:normal;src:local(&apos;PT MonoBold&apos;),url(/font/PTMonoBold.woff2) format(&apos;woff2&apos;),url(/font/PTMonoBold.woff) format(&apos;woff&apos;),url(/font/PTMonoBold.ttf) format(&apos;truetype&apos;)}</style></defs><g id="inheritance" fill="none" fill-rule="evenodd" stroke="none" stroke-width="1"><g id="rabbit-animal-independent-rabbit.svg"><path id="Rectangle-1" fill="#FFF9EB" stroke="#E8C48E" stroke-width="2" d="M243 23v48h178V23H243z"/><text id="constructor:-Rabbit" fill="#8A704D" font-family="PTMono-Regular, PT Mono" font-size="14" font-weight="normal"> <tspan x="253" y="44">constructor: Rabbit</tspan> <tspan x="253" y="59">hide: function</tspan></text><text id="Rabbit.prototype" fill="#8A704D" font-family="PTMono-Regular, PT Mono" font-size="14" font-weight="normal"><tspan x="242" y="15">Rabbit.prototype</tspan></text><path id="Rectangle-1-Copy-2" fill="#FFF9EB" stroke="#E8C48E" stroke-width="2" d="M8 23h108v28H8z"/><text id="Rabbit" fill="#8A704D" font-family="PTMono-Regular, PT Mono" font-size="14" font-weight="normal"><tspan x="7" y="15">Rabbit</tspan></text><path id="Rectangle-1-Copy-3" fill="#FFF9EB" stroke="#E8C48E" stroke-width="2" d="M242 151v28h178v-28H242z"/><text id="new-Rabbit" fill="#8A704D" font-family="PTMono-Regular, PT Mono" font-size="14" font-weight="normal"><tspan x="244" y="143">new Rabbit</tspan></text><path id="Line" fill="#EE6B47" fill-rule="nonzero" d="M331.5 81.5l7 14h-6v28h-2v-28h-6l7-14z"/><path id="Line-Copy" fill="#EE6B47" fill-rule="nonzero" d="M212 30l14 7-14 7v-6h-80v-2h80v-6z"/><text id="[[Prototype]]" fill="#8A704D" font-family="PTMono-Regular, PT Mono" font-size="14" font-weight="normal"><tspan x="341" y="105">[[Prototype]]</tspan></text><text id="prototype" fill="#8A704D" font-family="PTMono-Regular, PT Mono" font-size="14" font-weight="normal"><tspan x="139" y="25">prototype</tspan></text><text id="name:-&quot;My-rabbit&quot;" fill="#8A704D" font-family="PTMono-Regular, PT Mono" font-size="14" font-weight="normal"><tspan x="254" y="169">name: &quot;My rabbit&quot;</tspan></text></g></g></svg>
